X: 15630
T: God Rest Ye Merry
R: jig
M: 6/8
K: Bminor
A|B2 f f2 e|d2 c B2 A|B2 c d2 B|F3 F^GA|
B2 F f2 e|d2 e f2 g|f2 e d2 c|B3- B2 ^A|
B3 f2 e|d3 cBA|B2 F dcB|F3- F2 A|
B2 f f2 e|d2 c B2 A|B2 c d2 e|f3- f2||
f|g2 e f2 g|a2 b f2 e|d3 Bcd|e3 d2 e|
f3 g2 f|f2 e d2 c|B3 dcB|e3 d2 e|
f2 g a2 b|f2 e d2 c|B3 dcB|F3 d2 e|
f3 gab|f3 edc|B2 e dcA|B3- B2||

